Newaita-dark/apps/48/sqlitebrowser.svg

<svg height="48" viewBox="0 0 48 48" width="48" xmlns="http://www.w3.org/2000/svg" xmlns:xlink="http://www.w3.org/1999/xlink"><linearGradient id="a" gradientUnits="userSpaceOnUse" x1="23.81478" x2="23.81478" y1="42.0509045" y2="44.03547050005"><stop offset="0" stop-opacity=".27451"/><stop offset="1" stop-opacity="0"/></linearGradient><linearGradient id="b"><stop offset="0" stop-opacity=".313726"/><stop offset=".222222" stop-opacity=".27451"/><stop offset="1" stop-opacity="0"/></linearGradient><radialGradient id="c" cx="450.908936" cy="189.579361" gradientTransform="matrix(.00000026 -.117199 -.210958 -.00000015 66.288584 95.392999)" gradientUnits="userSpaceOnUse" r="21.166656" xlink:href="#b"/><radialGradient id="d" cx="450.908936" cy="189.579361" gradientTransform="matrix(-.00000026 .117199 .210958 .00000015 -18.659033 -11.291218)" gradientUnits="userSpaceOnUse" r="21.166656" xlink:href="#b"/><radialGradient id="e" cx="450.908936" cy="189.579361" gradientTransform="matrix(-.00000026 -.117199 .210958 -.00000015 -18.659033 95.392999)" gradientUnits="userSpaceOnUse" r="21.166656" xlink:href="#b"/><radialGradient id="f" cx="450.908936" cy="189.579361" gradientTransform="matrix(.00000026 .117199 -.210958 .00000015 66.288581 -11.291219)" gradientUnits="userSpaceOnUse" r="21.166656" xlink:href="#b"/><linearGradient id="g" gradientUnits="userSpaceOnUse" x1="23.81478309347" x2="23.814786" y1="46.0200335001" y2="4.34415649995"><stop offset="0" stop-color="#424242"/><stop offset="1" stop-color="#616161"/></linearGradient><linearGradient id="h" gradientUnits="userSpaceOnUse" x1="23.81478309347" x2="23.814786" y1="46.02002744001" y2="2.35958603372"><stop offset="0" stop-color="#757575"/><stop offset="1" stop-color="#9e9e9e"/></linearGradient><linearGradient id="i" gradientUnits="userSpaceOnUse" x1="23.814786" x2="23.814786" y1="44.03546750005" y2="4.3441580001"><stop offset="0" stop-color="#9e9e9e"/><stop offset="1" stop-color="#bdbdbd"/></linearGradient><path d="m20.839844 42.050781h5.953125v1.984375h-5.953125zm0 0" fill="url(#a)"/><path d="m26.792969 42.050781h3.96875v-1.984375h-3.96875zm0 0" fill="url(#c)"/><path d="m20.839844 42.050781h-3.972656v1.984375h3.972656zm0 0" fill="url(#d)"/><path d="m20.839844 42.050781h-3.972656v-1.984375h3.972656zm0 0" fill="url(#e)"/><path d="m26.792969 42.050781h3.96875v1.984375h-3.96875zm0 0" fill="url(#f)"/><path d="m23.816406 26.175781c10.410156 0 18.851563 3.550781 18.851563 7.9375 0 4.382813-8.441407 7.9375-18.851563 7.9375-10.414062 0-18.855468-3.554687-18.855468-7.9375 0-4.386719 8.441406-7.9375 18.855468-7.9375zm0 0" fill="url(#g)"/><path d="m4.96875 33.894531c-.003906.074219-.007812.144531-.007812.21875 0 4.398438 8.410156 7.9375 18.855468 7.9375 10.441406 0 18.851563-3.539062 18.851563-7.9375 0-.074219-.003907-.144531-.007813-.21875-.269531 4.296875-8.574218 7.722657-18.84375 7.722657-10.273437 0-18.578125-3.425782-18.847656-7.722657zm0 0" fill-opacity=".235294"/><path d="m23.816406 26.175781c-10.445312 0-18.855468 3.539063-18.855468 7.9375 0 .082031.003906.164063.011718.246094.308594-4.28125 8.59375-7.6875 18.84375-7.6875 10.246094 0 18.53125 3.40625 18.84375 7.6875.003906-.082031.007813-.164063.007813-.246094 0-4.398437-8.410157-7.9375-18.851563-7.9375zm0 0" fill="#fff" fill-opacity=".392157"/><path d="m254.017409 64.181673c111.031064 0 201.064133 37.871383 201.064133 84.658582 0 46.745536-90.033069 84.658582-201.064133 84.658582-111.072726 0-201.105795-37.913046-201.105795-84.658582 0-46.787199 90.033069-84.658582 201.105795-84.658582zm0 0" fill="none" stroke="#212121" stroke-linecap="round" stroke-width="3" transform="matrix(.093759 0 0 .093759 0 20.158175)"/><path d="m23.816406 15.257812c10.410156 0 18.851563 3.554688 18.851563 7.941407 0 4.382812-8.441407 7.9375-18.851563 7.9375-10.414062 0-18.855468-3.554688-18.855468-7.9375 0-4.386719 8.441406-7.941407 18.855468-7.941407zm0 0" fill="url(#h)"/><path d="m23.816406 15.257812c-10.445312 0-18.855468 3.542969-18.855468 7.941407 0 .082031.003906.164062.011718.246093.308594-4.28125 8.59375-7.691406 18.84375-7.691406 10.246094 0 18.53125 3.410156 18.84375 7.691406.003906-.082031.007813-.164062.007813-.246093 0-4.398438-8.410157-7.941407-18.851563-7.941407zm0 0" fill="#fff" fill-opacity=".392157"/><path d="m10.101562 28.65625c-.183593.078125-.359374.164062-.535156.246094 3.453125 1.675781 8.546875 2.730468 14.25 2.730468 5.699219 0 10.796875-1.054687 14.246094-2.730468-.171875-.082032-.351562-.167969-.535156-.246094-3.429688 1.527344-8.296875 2.480469-13.710938 2.480469-5.417968 0-10.285156-.953125-13.714844-2.480469zm0 0" fill-opacity=".235294"/><path d="m254.017409-168.68193c111.031064 0 201.064133 37.913046 201.064133 84.700245 0 46.745536-90.033069 84.658582-201.064133 84.658582-111.072726 0-201.105795-37.913046-201.105795-84.658582 0-46.787199 90.033069-84.700245 201.105795-84.700245zm0 0" fill="none" stroke="#212121" stroke-linecap="round" stroke-width="3" transform="matrix(.093759 0 0 .093759 0 31.073254)"/><path d="m23.816406 4.34375c10.410156 0 18.851563 3.554688 18.851563 7.9375 0 4.386719-8.441407 7.9375-18.851563 7.9375-10.414062 0-18.855468-3.550781-18.855468-7.9375 0-4.382812 8.441406-7.9375 18.855468-7.9375zm0 0" fill="url(#i)"/><path d="m23.816406 4.34375c-10.445312 0-18.855468 3.539062-18.855468 7.9375 0 .085938.003906.167969.011718.25.308594-4.28125 8.59375-7.691406 18.84375-7.691406 10.246094 0 18.53125 3.410156 18.84375 7.691406.003906-.082031.007813-.164062.007813-.25 0-4.398438-8.410157-7.9375-18.851563-7.9375zm0 0" fill="#fff" fill-opacity=".392157"/><path d="m10.101562 17.738281c-.183593.082031-.359374.164063-.535156.25 3.453125 1.671875 8.546875 2.730469 14.25 2.730469 5.699219 0 10.796875-1.058594 14.246094-2.730469-.171875-.085937-.351562-.167969-.535156-.25-3.429688 1.53125-8.296875 2.480469-13.710938 2.480469-5.417968 0-10.285156-.949219-13.714844-2.480469zm0 0" fill-opacity=".235294"/><path d="m254.017409-168.671091c111.031064 0 201.064133 37.913046 201.064133 84.658582 0 46.787199-90.033069 84.658582-201.064133 84.658582-111.072726 0-201.105795-37.871383-201.105795-84.658582 0-46.745536 90.033069-84.658582 201.105795-84.658582zm0 0" fill="none" stroke="#212121" stroke-linecap="round" stroke-width="3" transform="matrix(.093759 0 0 .093759 0 20.158175)"/></svg>

<?xml version="1.0" encoding="UTF-8"?>
<svg xmlns="http://www.w3.org/2000/svg" xmlns:xlink="http://www.w3.org/1999/xlink" width="48px" height="48px" viewBox="0 0 48 48" version="1.1">
<defs>
<linearGradient id="linear0" gradientUnits="userSpaceOnUse" x1="254" y1="233.5" x2="254" y2="254.666672" gradientTransform="matrix(0.093759,0,0,0.093759,-0.00000572259,20.158178)">
<stop offset="0" style="stop-color:rgb(0%,0%,0%);stop-opacity:0.27451;"/>
<stop offset="1" style="stop-color:rgb(0%,0%,0%);stop-opacity:0;"/>
</linearGradient>
<radialGradient id="radial0" gradientUnits="userSpaceOnUse" cx="450.908936" cy="189.579361" fx="450.908936" fy="189.579361" r="21.166656" gradientTransform="matrix(0.000000261256,-0.117199,-0.210958,-0.000000152308,66.288584,95.392999)">
<stop offset="0" style="stop-color:rgb(0%,0%,0%);stop-opacity:0.313726;"/>
<stop offset="0.222222" style="stop-color:rgb(0%,0%,0%);stop-opacity:0.27451;"/>
<stop offset="1" style="stop-color:rgb(0%,0%,0%);stop-opacity:0;"/>
</radialGradient>
<radialGradient id="radial1" gradientUnits="userSpaceOnUse" cx="450.908936" cy="189.579361" fx="450.908936" fy="189.579361" r="21.166656" gradientTransform="matrix(-0.000000261256,0.117199,0.210958,0.000000152308,-18.659033,-11.291218)">
<stop offset="0" style="stop-color:rgb(0%,0%,0%);stop-opacity:0.313726;"/>
<stop offset="0.222222" style="stop-color:rgb(0%,0%,0%);stop-opacity:0.27451;"/>
<stop offset="1" style="stop-color:rgb(0%,0%,0%);stop-opacity:0;"/>
</radialGradient>
<radialGradient id="radial2" gradientUnits="userSpaceOnUse" cx="450.908936" cy="189.579361" fx="450.908936" fy="189.579361" r="21.166656" gradientTransform="matrix(-0.000000261256,-0.117199,0.210958,-0.000000152308,-18.659033,95.392999)">
<stop offset="0" style="stop-color:rgb(0%,0%,0%);stop-opacity:0.313726;"/>
<stop offset="0.222222" style="stop-color:rgb(0%,0%,0%);stop-opacity:0.27451;"/>
<stop offset="1" style="stop-color:rgb(0%,0%,0%);stop-opacity:0;"/>
</radialGradient>
<radialGradient id="radial3" gradientUnits="userSpaceOnUse" cx="450.908936" cy="189.579361" fx="450.908936" fy="189.579361" r="21.166656" gradientTransform="matrix(0.000000261256,0.117199,-0.210958,0.000000152308,66.288581,-11.291219)">
<stop offset="0" style="stop-color:rgb(0%,0%,0%);stop-opacity:0.313726;"/>
<stop offset="0.222222" style="stop-color:rgb(0%,0%,0%);stop-opacity:0.27451;"/>
<stop offset="1" style="stop-color:rgb(0%,0%,0%);stop-opacity:0;"/>
</radialGradient>
<linearGradient id="linear1" gradientUnits="userSpaceOnUse" x1="253.999969" y1="275.833344" x2="254" y2="-168.666672" gradientTransform="matrix(0.093759,0,0,0.093759,0,20.158175)">
<stop offset="0" style="stop-color:rgb(25.882354%,25.882354%,25.882354%);stop-opacity:1;"/>
<stop offset="1" style="stop-color:rgb(38.039216%,38.039216%,38.039216%);stop-opacity:1;"/>
</linearGradient>
<linearGradient id="linear2" gradientUnits="userSpaceOnUse" x1="253.999969" y1="159.416946" x2="254" y2="-306.249725" gradientTransform="matrix(0.093759,0,0,0.093759,0,31.073254)">
<stop offset="0" style="stop-color:rgb(45.882353%,45.882353%,45.882353%);stop-opacity:1;"/>
<stop offset="1" style="stop-color:rgb(61.960787%,61.960787%,61.960787%);stop-opacity:1;"/>
</linearGradient>
<linearGradient id="linear3" gradientUnits="userSpaceOnUse" x1="254" y1="254.666672" x2="254" y2="-168.666656" gradientTransform="matrix(0.093759,0,0,0.093759,0,20.158175)">
<stop offset="0" style="stop-color:rgb(61.960787%,61.960787%,61.960787%);stop-opacity:1;"/>
<stop offset="1" style="stop-color:rgb(74.117649%,74.117649%,74.117649%);stop-opacity:1;"/>
</linearGradient>
</defs>
<g id="surface1">
<path style=" stroke:none;fill-rule:nonzero;fill:url(#linear0);" d="M 20.839844 42.050781 L 26.792969 42.050781 L 26.792969 44.035156 L 20.839844 44.035156 Z M 20.839844 42.050781 "/>
<path style=" stroke:none;fill-rule:nonzero;fill:url(#radial0);" d="M 26.792969 42.050781 L 30.761719 42.050781 L 30.761719 40.066406 L 26.792969 40.066406 Z M 26.792969 42.050781 "/>
<path style=" stroke:none;fill-rule:nonzero;fill:url(#radial1);" d="M 20.839844 42.050781 L 16.867188 42.050781 L 16.867188 44.035156 L 20.839844 44.035156 Z M 20.839844 42.050781 "/>
<path style=" stroke:none;fill-rule:nonzero;fill:url(#radial2);" d="M 20.839844 42.050781 L 16.867188 42.050781 L 16.867188 40.066406 L 20.839844 40.066406 Z M 20.839844 42.050781 "/>
<path style=" stroke:none;fill-rule:nonzero;fill:url(#radial3);" d="M 26.792969 42.050781 L 30.761719 42.050781 L 30.761719 44.035156 L 26.792969 44.035156 Z M 26.792969 42.050781 "/>
<path style=" stroke:none;fill-rule:nonzero;fill:url(#linear1);" d="M 23.816406 26.175781 C 34.226562 26.175781 42.667969 29.726562 42.667969 34.113281 C 42.667969 38.496094 34.226562 42.050781 23.816406 42.050781 C 13.402344 42.050781 4.960938 38.496094 4.960938 34.113281 C 4.960938 29.726562 13.402344 26.175781 23.816406 26.175781 Z M 23.816406 26.175781 "/>
<path style=" stroke:none;fill-rule:nonzero;fill:rgb(0%,0%,0%);fill-opacity:0.235294;" d="M 4.96875 33.894531 C 4.964844 33.96875 4.960938 34.039062 4.960938 34.113281 C 4.960938 38.511719 13.371094 42.050781 23.816406 42.050781 C 34.257812 42.050781 42.667969 38.511719 42.667969 34.113281 C 42.667969 34.039062 42.664062 33.96875 42.660156 33.894531 C 42.390625 38.191406 34.085938 41.617188 23.816406 41.617188 C 13.542969 41.617188 5.238281 38.191406 4.96875 33.894531 Z M 4.96875 33.894531 "/>
<path style=" stroke:none;fill-rule:nonzero;fill:rgb(100%,100%,100%);fill-opacity:0.392157;" d="M 23.816406 26.175781 C 13.371094 26.175781 4.960938 29.714844 4.960938 34.113281 C 4.960938 34.195312 4.964844 34.277344 4.972656 34.359375 C 5.28125 30.078125 13.566406 26.671875 23.816406 26.671875 C 34.0625 26.671875 42.347656 30.078125 42.660156 34.359375 C 42.664062 34.277344 42.667969 34.195312 42.667969 34.113281 C 42.667969 29.714844 34.257812 26.175781 23.816406 26.175781 Z M 23.816406 26.175781 "/>
<path style="fill:none;stroke-width:3;stroke-linecap:round;stroke-linejoin:miter;stroke:rgb(12.941177%,12.941177%,12.941177%);stroke-opacity:1;stroke-miterlimit:4;" d="M 254.017409 64.181673 C 365.048473 64.181673 455.081542 102.053056 455.081542 148.840255 C 455.081542 195.585791 365.048473 233.498837 254.017409 233.498837 C 142.944683 233.498837 52.911614 195.585791 52.911614 148.840255 C 52.911614 102.053056 142.944683 64.181673 254.017409 64.181673 Z M 254.017409 64.181673 " transform="matrix(0.093759,0,0,0.093759,0,20.158175)"/>
<path style=" stroke:none;fill-rule:nonzero;fill:url(#linear2);" d="M 23.816406 15.257812 C 34.226562 15.257812 42.667969 18.8125 42.667969 23.199219 C 42.667969 27.582031 34.226562 31.136719 23.816406 31.136719 C 13.402344 31.136719 4.960938 27.582031 4.960938 23.199219 C 4.960938 18.8125 13.402344 15.257812 23.816406 15.257812 Z M 23.816406 15.257812 "/>
<path style=" stroke:none;fill-rule:nonzero;fill:rgb(100%,100%,100%);fill-opacity:0.392157;" d="M 23.816406 15.257812 C 13.371094 15.257812 4.960938 18.800781 4.960938 23.199219 C 4.960938 23.28125 4.964844 23.363281 4.972656 23.445312 C 5.28125 19.164062 13.566406 15.753906 23.816406 15.753906 C 34.0625 15.753906 42.347656 19.164062 42.660156 23.445312 C 42.664062 23.363281 42.667969 23.28125 42.667969 23.199219 C 42.667969 18.800781 34.257812 15.257812 23.816406 15.257812 Z M 23.816406 15.257812 "/>
<path style=" stroke:none;fill-rule:nonzero;fill:rgb(0%,0%,0%);fill-opacity:0.235294;" d="M 10.101562 28.65625 C 9.917969 28.734375 9.742188 28.820312 9.566406 28.902344 C 13.019531 30.578125 18.113281 31.632812 23.816406 31.632812 C 29.515625 31.632812 34.613281 30.578125 38.0625 28.902344 C 37.890625 28.820312 37.710938 28.734375 37.527344 28.65625 C 34.097656 30.183594 29.230469 31.136719 23.816406 31.136719 C 18.398438 31.136719 13.53125 30.183594 10.101562 28.65625 Z M 10.101562 28.65625 "/>
<path style="fill:none;stroke-width:3;stroke-linecap:round;stroke-linejoin:miter;stroke:rgb(12.941177%,12.941177%,12.941177%);stroke-opacity:1;stroke-miterlimit:4;" d="M 254.017409 -168.68193 C 365.048473 -168.68193 455.081542 -130.768884 455.081542 -83.981685 C 455.081542 -37.236149 365.048473 0.676897 254.017409 0.676897 C 142.944683 0.676897 52.911614 -37.236149 52.911614 -83.981685 C 52.911614 -130.768884 142.944683 -168.68193 254.017409 -168.68193 Z M 254.017409 -168.68193 " transform="matrix(0.093759,0,0,0.093759,0,31.073254)"/>
<path style=" stroke:none;fill-rule:nonzero;fill:url(#linear3);" d="M 23.816406 4.34375 C 34.226562 4.34375 42.667969 7.898438 42.667969 12.28125 C 42.667969 16.667969 34.226562 20.21875 23.816406 20.21875 C 13.402344 20.21875 4.960938 16.667969 4.960938 12.28125 C 4.960938 7.898438 13.402344 4.34375 23.816406 4.34375 Z M 23.816406 4.34375 "/>
<path style=" stroke:none;fill-rule:nonzero;fill:rgb(100%,100%,100%);fill-opacity:0.392157;" d="M 23.816406 4.34375 C 13.371094 4.34375 4.960938 7.882812 4.960938 12.28125 C 4.960938 12.367188 4.964844 12.449219 4.972656 12.53125 C 5.28125 8.25 13.566406 4.839844 23.816406 4.839844 C 34.0625 4.839844 42.347656 8.25 42.660156 12.53125 C 42.664062 12.449219 42.667969 12.367188 42.667969 12.28125 C 42.667969 7.882812 34.257812 4.34375 23.816406 4.34375 Z M 23.816406 4.34375 "/>
<path style=" stroke:none;fill-rule:nonzero;fill:rgb(0%,0%,0%);fill-opacity:0.235294;" d="M 10.101562 17.738281 C 9.917969 17.820312 9.742188 17.902344 9.566406 17.988281 C 13.019531 19.660156 18.113281 20.71875 23.816406 20.71875 C 29.515625 20.71875 34.613281 19.660156 38.0625 17.988281 C 37.890625 17.902344 37.710938 17.820312 37.527344 17.738281 C 34.097656 19.269531 29.230469 20.21875 23.816406 20.21875 C 18.398438 20.21875 13.53125 19.269531 10.101562 17.738281 Z M 10.101562 17.738281 "/>
<path style="fill:none;stroke-width:3;stroke-linecap:round;stroke-linejoin:miter;stroke:rgb(12.941177%,12.941177%,12.941177%);stroke-opacity:1;stroke-miterlimit:4;" d="M 254.017409 -168.671091 C 365.048473 -168.671091 455.081542 -130.758045 455.081542 -84.012509 C 455.081542 -37.22531 365.048473 0.646073 254.017409 0.646073 C 142.944683 0.646073 52.911614 -37.22531 52.911614 -84.012509 C 52.911614 -130.758045 142.944683 -168.671091 254.017409 -168.671091 Z M 254.017409 -168.671091 " transform="matrix(0.093759,0,0,0.093759,0,20.158175)"/>
</g>
</svg>
